svg/icons/src/icon-lab.svg

<?xml version="1.0" encoding="UTF-8"?>
<svg width="32px" height="32px" viewBox="0 0 32 32" version="1.1" xmlns="http://www.w3.org/2000/svg" xmlns:xlink="http://www.w3.org/1999/xlink">
    <!-- Generator: Sketch 52.5 (67469) - http://www.bohemiancoding.com/sketch -->
    <title>icon-lab</title>
    <desc>Created with Sketch.</desc>
    <defs>
        <path d="M13,11.0007143 L13,13 L15,13 C15.5522847,13 16,13.4477153 16,14 C16,14.5522847 15.5522847,15 15,15 L12,15 C11.4477153,15 11,14.5522847 11,14 L11,4 L10,4 C9.44771525,4 9,3.55228475 9,3 C9,2.44771525 9.44771525,2 10,2 L12,2 C12.5522847,2 13,2.44771525 13,3 L13,5.0007143 L15.0014286,5.0007143 C15.5537134,5.0007143 16.0014286,5.44842955 16.0014286,6.0007143 C16.0014286,6.55299905 15.5537134,7.0007143 15.0014286,7.0007143 L13,7.0007143 L13,9.0007143 L14,9.0007143 C14.5522847,9.0007143 15,9.44842955 15,10.0007143 C15,10.5529991 14.5522847,11.0007143 14,11.0007143 L13,11.0007143 Z M22.8726556,30 L9.17266739,30 C7.51581314,30 6.17266739,28.6568542 6.17266739,27 C6.17266739,26.4790708 6.30831327,25.9671192 6.56625419,25.5145337 L11.1311956,17.5048446 C11.309086,17.1927164 11.6407383,17 12,17 L20,17 C20.357738,17 20.6882266,17.1910991 20.8666858,17.5011456 L25.472713,25.5034367 C26.299242,26.9394088 25.8051909,28.7735283 24.3692189,29.6000574 C23.9139793,29.8620881 23.3979204,30 22.8726556,30 Z M20,4 L20,14 C20,14.5522847 19.5522847,15 19,15 C18.4477153,15 18,14.5522847 18,14 L18,3 C18,2.44771525 18.4477153,2 19,2 L21.0003572,2 C21.5526419,2 22.0003572,2.44771525 22.0003572,3 C22.0003572,3.55228475 21.5526419,4 21.0003572,4 L20,4 Z" id="path-1"></path>
    </defs>
    <g id="icon-lab" stroke="none" stroke-width="1" fill="none" fill-rule="evenodd">
        <mask id="mask-2" fill="white">
            <use xlink:href="#path-1"></use>
        </mask>
        <use id="Mask" fill="#2333FF" fill-rule="nonzero" xlink:href="#path-1"></use>
    </g>
</svg>

<svg height="32" width="32" xmlns="http://www.w3.org/2000/svg"><path d="M13 11v2h2a1 1 0 0 1 0 2h-3a1 1 0 0 1-1-1V4h-1a1 1 0 1 1 0-2h2a1 1 0 0 1 1 1v2h2.001a1 1 0 1 1 0 2H13v2h1a1 1 0 0 1 0 2zm9.873 19h-13.7a3 3 0 0 1-2.607-4.485l4.565-8.01A1 1 0 0 1 12 17h8a1 1 0 0 1 .867.501l4.606 8.002a3 3 0 0 1-2.6 4.497zM20 4v10a1 1 0 0 1-2 0V3a1 1 0 0 1 1-1h2a1 1 0 0 1 0 2z" fill="#2333ff"/></svg>
